X:224
T:score299
L:1/8
Q:1/4=120
M:4/4
I:linebreak $
K:G
 B>B | Bc c2 z2 c>c | (B2 e2) z2 B>B | (A2 ^d2) z2 A>A | G2 e3 G A^A | B2 ^AB f4 | z2 e2 f2 e2 | %7
 ^d2 cB A2 B2 | G2 ^AB e4 |] %9
